X:455
T:Rakes of Westmeath
M:9/8
L:1/8
Q:120
R:Slip Jig (Key of D)
K:D
"D"ded dAG "A"FED | "D"ded dAF "G"~G3 | "D"ABc dAG FED | "C"=cB=c E2F "G"GFE :|
"D"d2g fdf "A"ecA | "D"d2g fdf "G"~g3 | "D"d2g fdf eAB | "C"=cB=c E2F "G"GFE |
"D"d2g fdf "A"ecA | "D"d2g fdf "G"~g3 | "D"agf gfe dAB | "C"=cB=c E2F "G"GFE |]
